lib/preview_tmp/nrk-logo-nrk-nyheter-on-light.svg

<svg width="120" height="24" viewBox="0 0 120 24" fill="none" xmlns="http://www.w3.org/2000/svg">
<path d="M0 18.6666V4.66792H4.59339V18.6666H0ZM10.8428 6.89589L13.4844 18.6666H8.45737L5.30307 4.66792H8.12254C8.76907 4.65953 9.39641 4.88744 9.88691 5.30877C10.3782 5.71242 10.7158 6.27279 10.8428 6.89589ZM14.1744 18.6666V4.66792H18.7678V18.6666H14.1744ZM22.2372 9.99143C21.7422 9.99625 21.2552 9.86675 20.828 9.61677C20.4064 9.37312 20.0563 9.02293 19.8127 8.60134C19.5624 8.17403 19.4329 7.68687 19.4378 7.19168C19.4321 6.69952 19.5618 6.21526 19.8127 5.79181C20.0589 5.3748 20.4086 5.02842 20.828 4.78625C21.2553 4.53657 21.7423 4.40708 22.2372 4.41159C22.7292 4.4063 23.2133 4.5359 23.6369 4.78625C24.0521 5.03054 24.3981 5.37663 24.6424 5.79181C24.893 6.21537 25.0226 6.69956 25.0172 7.19168C25.0218 7.68683 24.8923 8.17391 24.6424 8.60134C24.4007 9.02108 24.0542 9.37097 23.6369 9.61677C23.2133 9.86762 22.7289 9.99725 22.2366 9.99143H22.2372ZM25.7269 18.6666V4.66792H30.3207V18.6666H25.7269ZM36.136 12.3179C36.1489 12.3315 36.2475 12.4925 36.4317 12.801C36.6159 13.1094 36.8558 13.5038 37.1513 13.984C37.447 14.464 37.759 14.9733 38.0874 15.512C38.4157 16.0507 38.7247 16.5601 39.0143 17.0401C39.3028 17.52 39.6313 18.0622 40 18.6666H34.9531C34.6375 18.154 34.3515 17.6907 34.0952 17.2766C33.8389 16.8626 33.5665 16.4157 33.2778 15.9359C32.9884 15.4566 32.7024 14.9899 32.4196 14.536C32.1368 14.0821 31.8938 13.6845 31.6905 13.3432C31.4863 13.0017 31.3449 12.7716 31.2663 12.6531C31.0713 12.359 30.9559 12.0193 30.9315 11.6673C30.951 11.3294 31.0597 11.0028 31.2466 10.7206C31.3254 10.5892 31.47 10.3558 31.6803 10.0206C31.8906 9.68545 32.137 9.28787 32.4196 8.82782C32.7021 8.36777 32.9882 7.89785 33.2778 7.41808C33.5674 6.93832 33.8398 6.48809 34.0952 6.06747C34.3519 5.64729 34.6379 5.18066 34.9531 4.6676H40L36.0962 11.0361C35.9754 11.2251 35.9073 11.443 35.8991 11.6673C35.9121 11.9027 35.9942 12.129 36.1353 12.3179H36.136Z" fill="#0A2343"/>
<path d="M55.3616 15.3155L46.9387 4.65377H45.3333V18.6676H47.1963V8L55.6394 18.6676H57.2446V4.65377H55.3619L55.3616 15.3155Z" fill="#1767CE"/>
<path d="M67.0945 8.70006L67.079 16.0919C66.9347 16.1758 66.7906 16.2563 66.6496 16.3287C66.4088 16.4522 66.1606 16.5609 65.9064 16.6541C65.6656 16.7436 65.4167 16.8097 65.1632 16.8514C64.9044 16.8921 64.6426 16.9119 64.3806 16.9107C63.9752 16.9269 63.5723 16.8384 63.2113 16.6538C62.8984 16.4731 62.6571 16.1911 62.5276 15.8547C62.3632 15.4232 62.2856 14.9636 62.2993 14.5023V8.40335L60.2779 8.69938V14.8967C60.2537 15.645 60.3819 16.3904 60.6547 17.088C60.8737 17.6318 61.2769 18.0822 61.7944 18.3611C62.3823 18.6485 63.0322 18.7873 63.6867 18.7654C64.2333 18.7691 64.7764 18.679 65.2923 18.4992C65.8012 18.3179 66.2816 18.0653 66.7189 17.7489C66.8395 17.6623 66.9587 17.5706 67.0776 17.4752L67.0757 18.3305C67.0757 19.3174 66.8444 20.0674 66.382 20.5806C65.9196 21.0938 65.1335 21.3504 64.0236 21.3504C63.7195 21.3504 63.409 21.3371 63.0921 21.3106C62.7757 21.2845 62.4613 21.2384 62.1507 21.1727C61.8402 21.1069 61.5263 21.0247 61.209 20.926C60.8917 20.8273 60.5746 20.7122 60.2577 20.5806L60.476 22.3373C60.7403 22.4421 61.0176 22.5375 61.3081 22.6235C61.5985 22.7094 61.8958 22.7818 62.1999 22.8406C62.5038 22.8998 62.8209 22.9458 63.1512 22.9787C63.4816 23.0116 63.8186 23.028 64.1623 23.0278C64.8793 23.0398 65.593 22.9298 66.2727 22.7024C66.8479 22.5083 67.3773 22.1992 67.8284 21.7941C68.2497 21.4082 68.5784 20.9327 68.79 20.4029C69.0141 19.8308 69.1251 19.2209 69.117 18.6068L69.0968 8.40202L67.0945 8.70006Z" fill="#1767CE"/>
<path d="M79.8174 8.79843C79.2352 8.50384 78.5873 8.36132 77.9347 8.38425C77.353 8.38414 76.7747 8.47395 76.2206 8.65041C75.6575 8.82868 75.121 9.08103 74.625 9.40078C74.4757 9.49651 74.3313 9.59815 74.1889 9.70637V3.76562L72.1674 4.0617V18.6677H74.1889V11.0831C74.3455 10.9976 74.506 10.916 74.6741 10.8416C74.9546 10.7183 75.2427 10.6128 75.5366 10.5258C75.8195 10.4421 76.1074 10.3762 76.3987 10.3284C76.6705 10.2834 76.9456 10.2603 77.2211 10.2594C77.538 10.2527 77.8536 10.3028 78.1526 10.4074C78.4049 10.4981 78.6299 10.6509 78.807 10.8515C78.9888 11.0692 79.1174 11.3259 79.1828 11.6015C79.2679 11.9502 79.3081 12.3083 79.3024 12.6671V18.6674H81.3237V12.2526C81.3501 11.5043 81.2218 10.7585 80.9467 10.0616C80.723 9.52648 80.3253 9.08165 79.8174 8.79843Z" fill="#1767CE"/>
<path d="M92.0062 9.87449C91.6256 9.38339 91.1236 8.99903 90.5492 8.75898C89.9111 8.49984 89.2269 8.37236 88.5379 8.38427C87.8437 8.37248 87.1548 8.50703 86.5164 8.77905C85.9358 9.03217 85.4182 9.40942 85.0003 9.88405C84.5698 10.3829 84.2461 10.9639 84.0487 11.5917C83.8228 12.31 83.7126 13.0595 83.722 13.8122C83.6939 14.7632 83.8942 15.7072 84.3063 16.5656C84.683 17.3094 85.2914 17.9119 86.0404 18.2828C86.9194 18.6952 87.8838 18.8947 88.855 18.8651C89.3222 18.8689 89.789 18.8392 90.2519 18.7763C90.6388 18.7207 91.0202 18.6315 91.3915 18.5098C91.7597 18.3866 92.1177 18.2348 92.462 18.0558L92.6004 16.536C92.3494 16.6281 92.095 16.7202 91.8374 16.8123C91.5797 16.9044 91.3122 16.9867 91.0347 17.0591C90.7549 17.1321 90.4701 17.1848 90.1825 17.2166C89.893 17.2497 89.6019 17.2663 89.3105 17.2663C88.7902 17.2747 88.271 17.2183 87.7647 17.0985C87.3563 17.0012 86.9785 16.8045 86.6651 16.5261C86.3483 16.2258 86.116 15.8482 85.9912 15.4307C85.8618 15.0079 85.789 14.5698 85.7749 14.128H92.9373C93.0348 13.3116 92.998 12.4848 92.8283 11.6802C92.6889 11.026 92.4084 10.4099 92.0062 9.87449ZM87.0119 10.3479C87.4769 10.0668 88.0138 9.92639 88.5574 9.94356C89.1018 9.91646 89.6394 10.0729 90.0834 10.3877C90.4781 10.7014 90.7599 11.1343 90.8861 11.6213C90.9849 11.9814 91.0336 12.3533 91.0308 12.7266H85.8185C85.8553 12.333 85.9398 11.9453 86.0702 11.572C86.2394 11.0714 86.5707 10.6409 87.0119 10.3479Z" fill="#1767CE"/>
<path d="M100.637 17.0784L100.3 17.138C100.192 17.1572 100.083 17.1704 99.9733 17.1775C99.8672 17.1844 99.7681 17.187 99.6759 17.187C99.3722 17.1954 99.0706 17.1346 98.794 17.0093C98.5561 16.8973 98.3589 16.7147 98.2292 16.4866C98.0904 16.2292 98.022 15.9399 98.031 15.6478V10.1804H100.825L101.043 8.60136H98.031V5.48246L96.0095 6.19336V8.60136H94.4835L94.2652 10.1804H96.0095V16.0623C96.0005 16.4545 96.0609 16.8452 96.1879 17.2166C96.2898 17.5106 96.448 17.7822 96.6536 18.0163C96.8422 18.2247 97.0715 18.3927 97.3275 18.5098C97.5896 18.6294 97.8658 18.7155 98.1496 18.766C98.4307 18.8178 98.7159 18.8442 99.0018 18.845C99.2132 18.845 99.4214 18.8385 99.6264 18.8255C99.8314 18.8126 100.02 18.7928 100.191 18.766C100.363 18.7397 100.525 18.7101 100.677 18.6775C100.829 18.645 100.957 18.615 101.063 18.5884L101.182 16.9505C101.105 16.9801 101.025 17.0032 100.944 17.0195C100.852 17.0389 100.749 17.059 100.637 17.0784Z" fill="#1767CE"/>
<path d="M110.636 9.87449C110.255 9.38343 109.753 8.99908 109.179 8.75898C108.541 8.49984 107.857 8.37235 107.167 8.38427C106.473 8.37257 105.784 8.50712 105.146 8.77905C104.565 9.03225 104.048 9.40949 103.63 9.88405C103.199 10.3829 102.876 10.9638 102.678 11.5914C102.453 12.3097 102.342 13.0592 102.352 13.8119C102.324 14.7629 102.524 15.7069 102.936 16.5653C103.313 17.3092 103.921 17.9116 104.67 18.2825C105.549 18.6948 106.514 18.8943 107.485 18.8647C107.952 18.8686 108.419 18.8389 108.882 18.7759C109.269 18.7203 109.65 18.6312 110.022 18.5095C110.39 18.3864 110.748 18.2346 111.092 18.0555L111.231 16.5357C110.979 16.6278 110.725 16.7199 110.467 16.812C110.21 16.9041 109.942 16.9864 109.665 17.0587C109.385 17.1318 109.1 17.1844 108.813 17.2163C108.523 17.2494 108.232 17.266 107.941 17.266C107.42 17.2744 106.901 17.218 106.394 17.0982C105.986 17.0007 105.608 16.8041 105.295 16.5258C104.978 16.2253 104.746 15.8477 104.621 15.4304C104.492 15.0076 104.419 14.5695 104.405 14.1277H111.567C111.665 13.3113 111.628 12.4845 111.458 11.6799C111.319 11.0258 111.038 10.4098 110.636 9.87449ZM105.641 10.3479C106.106 10.0668 106.643 9.92633 107.187 9.94356C107.732 9.91648 108.269 10.073 108.713 10.3877C109.108 10.7014 109.389 11.1344 109.516 11.6213C109.615 11.9813 109.663 12.3533 109.66 12.7266H104.448C104.485 12.333 104.569 11.9453 104.7 11.572C104.869 11.0715 105.2 10.641 105.641 10.3479Z" fill="#1767CE"/>
<path d="M118.186 8.532C117.815 8.63092 117.461 8.7839 117.136 8.98597C116.798 9.19609 116.485 9.44447 116.204 9.72614C116.157 9.77252 116.112 9.82482 116.065 9.87384V8.40338L114.044 8.69941V18.667H116.065V11.2104C116.216 11.106 116.371 11.0092 116.531 10.9203C116.73 10.8116 116.935 10.7159 117.146 10.634C117.35 10.5547 117.558 10.4856 117.77 10.4268C117.987 10.3664 118.209 10.3235 118.434 10.2985C118.674 10.272 118.916 10.2653 119.157 10.2785L119.395 8.42341C118.989 8.39435 118.58 8.43104 118.186 8.532Z" fill="#1767CE"/>
</svg>

<svg xmlns="http://www.w3.org/2000/svg" viewBox="0 0 120 24"><path fill="#0A2343" d="M0 18.667v-14h4.593v14H0ZM10.843 6.896l2.641 11.77H8.457L5.303 4.669h2.82a2.655 2.655 0 0 1 1.764.64c.491.404.829.965.956 1.588Zm3.331 11.77V4.669h4.594v13.999h-4.594Zm8.063-8.675a2.737 2.737 0 0 1-1.409-.374A2.778 2.778 0 0 1 19.813 8.6a2.735 2.735 0 0 1-.375-1.41 2.685 2.685 0 0 1 .375-1.4 2.812 2.812 0 0 1 3.824-1.005c.415.245.761.59 1.005 1.006.251.423.38.908.375 1.4.005.495-.125.982-.375 1.41a2.8 2.8 0 0 1-1.005 1.015c-.424.25-.908.38-1.4.374Zm3.49 8.676v-14h4.594v14h-4.594Zm10.409-6.35c.013.014.111.175.296.484.184.308.424.703.72 1.183a384.573 384.573 0 0 1 1.862 3.056c.289.48.617 1.022.986 1.627h-5.047l-.858-1.39c-.256-.414-.529-.861-.817-1.341-.29-.48-.576-.946-.858-1.4a71.148 71.148 0 0 1-.73-1.193 21.119 21.119 0 0 0-.424-.69 2.04 2.04 0 0 1-.334-.986c.019-.338.128-.664.315-.946.078-.132.223-.365.433-.7a216.7 216.7 0 0 0 1.598-2.603l.817-1.35.858-1.4H40l-3.904 6.368c-.12.19-.189.407-.197.631.013.236.095.462.236.65h.001Z"/><path fill="#1767CE" d="M55.362 15.316 46.939 4.653h-1.606v14.014h1.863V8l8.443 10.668h1.606V4.654h-1.883v10.662ZM67.094 8.7l-.015 7.392a9.456 9.456 0 0 1-.43.237c-.24.123-.488.232-.743.325-.24.09-.49.156-.743.197-.259.041-.52.06-.782.06a2.362 2.362 0 0 1-1.17-.257 1.578 1.578 0 0 1-.683-.8 3.506 3.506 0 0 1-.229-1.352V8.403l-2.021.296v6.198a5.526 5.526 0 0 0 .377 2.191c.219.544.622.994 1.14 1.273a4.004 4.004 0 0 0 1.892.404 4.78 4.78 0 0 0 1.605-.266c.51-.181.99-.434 1.427-.75.12-.087.24-.178.359-.274l-.002.855c0 .987-.232 1.737-.694 2.25-.462.514-1.249.77-2.358.77-.305 0-.615-.013-.932-.04a7.547 7.547 0 0 1-.941-.137 10.997 10.997 0 0 1-1.893-.592l.218 1.756a9.816 9.816 0 0 0 2.675.642c.33.033.668.049 1.011.049a6.319 6.319 0 0 0 2.11-.326 4.465 4.465 0 0 0 1.556-.908c.422-.386.75-.861.962-1.391a4.752 4.752 0 0 0 .327-1.796l-.02-10.205-2.002.298ZM79.817 8.798a3.87 3.87 0 0 0-1.882-.414c-.582 0-1.16.09-1.714.266a6.648 6.648 0 0 0-2.032 1.056v-5.94l-2.022.296v14.606h2.022v-7.585a6.503 6.503 0 0 1 1.348-.557c.282-.084.57-.15.862-.198.272-.045.547-.068.822-.069.317-.006.633.044.932.148.252.091.477.244.654.444.182.218.31.475.376.75.085.35.125.707.12 1.066v6h2.02v-6.414a5.444 5.444 0 0 0-.376-2.191 2.591 2.591 0 0 0-1.13-1.264ZM92.006 9.874A3.599 3.599 0 0 0 90.55 8.76a5.11 5.11 0 0 0-2.011-.375 4.943 4.943 0 0 0-2.022.395A4.32 4.32 0 0 0 85 9.884a4.832 4.832 0 0 0-.951 1.708 7.106 7.106 0 0 0-.327 2.22 5.955 5.955 0 0 0 .584 2.754 3.866 3.866 0 0 0 1.734 1.717 6.183 6.183 0 0 0 2.815.582c.467.004.934-.026 1.397-.089a6.735 6.735 0 0 0 2.21-.72l.138-1.52c-.25.092-.505.184-.763.276a9.54 9.54 0 0 1-.802.247c-.28.073-.565.126-.852.158-.29.033-.581.05-.873.05a6.273 6.273 0 0 1-1.545-.168 2.543 2.543 0 0 1-1.1-.573c-.317-.3-.549-.678-.674-1.095a4.996 4.996 0 0 1-.216-1.303h7.162a7.532 7.532 0 0 0-.109-2.448 4.604 4.604 0 0 0-.822-1.806Zm-4.994.474a2.816 2.816 0 0 1 1.545-.404 2.43 2.43 0 0 1 1.526.444c.395.313.677.746.803 1.233.099.36.148.732.145 1.106h-5.213c.037-.394.122-.782.252-1.155.17-.5.5-.931.942-1.224ZM100.637 17.078l-.337.06c-.108.02-.217.032-.327.04a4.57 4.57 0 0 1-.297.009 2.003 2.003 0 0 1-.882-.178 1.274 1.274 0 0 1-.565-.522 1.66 1.66 0 0 1-.198-.84V10.18h2.794l.218-1.579h-3.012V5.482l-2.022.711v2.408h-1.525l-.219 1.58h1.745v5.881c-.01.392.05.783.178 1.155.102.294.26.565.466.8.188.208.418.376.674.493.262.12.538.205.822.256.28.052.566.078.852.079.211 0 .42-.006.624-.02.205-.012.394-.032.565-.059.172-.026.334-.056.486-.088.152-.033.28-.063.386-.09l.119-1.637c-.077.03-.157.052-.238.069-.092.019-.195.039-.307.058ZM110.636 9.874a3.605 3.605 0 0 0-1.457-1.115 5.11 5.11 0 0 0-2.012-.375 4.943 4.943 0 0 0-2.021.395 4.319 4.319 0 0 0-1.516 1.105 4.835 4.835 0 0 0-.952 1.707 7.114 7.114 0 0 0-.326 2.22 5.957 5.957 0 0 0 .584 2.754 3.867 3.867 0 0 0 1.734 1.717 6.187 6.187 0 0 0 2.815.583c.467.004.934-.026 1.397-.09a6.753 6.753 0 0 0 2.21-.72l.139-1.52c-.252.093-.506.185-.764.277a9.465 9.465 0 0 1-.802.247c-.28.073-.565.125-.852.157-.29.033-.581.05-.872.05a6.283 6.283 0 0 1-1.547-.168 2.544 2.544 0 0 1-1.099-.572 2.496 2.496 0 0 1-.674-1.096 5.008 5.008 0 0 1-.216-1.302h7.162a7.51 7.51 0 0 0-.109-2.448 4.6 4.6 0 0 0-.822-1.806Zm-4.995.474a2.816 2.816 0 0 1 1.546-.404 2.43 2.43 0 0 1 1.526.444c.395.313.676.746.803 1.233.099.36.147.732.144 1.106h-5.212c.037-.394.121-.782.252-1.155.169-.5.5-.931.941-1.224ZM118.186 8.532a3.884 3.884 0 0 0-1.05.454c-.338.21-.651.458-.932.74-.047.047-.092.099-.139.148v-1.47l-2.021.295v9.968h2.021V11.21a5.23 5.23 0 0 1 1.081-.576c.204-.08.412-.148.624-.207a4.21 4.21 0 0 1 1.387-.149l.238-1.855a3.786 3.786 0 0 0-1.209.109Z"/></svg>
